!! 00026] TT[TB
!! Eigene Aufnahme, Guangzhou, 5.5.87
!!!OTL: Xiu he bao
!!!ARE: Asia, China, Shanxi, Jinzhong
!! Ethnic Group: Han
!! MM, Quelle S. Bandprotokoll),und II 326
!!!SCT: C0942
!!!YEM: Copyright 1995, estate of Helmut Schaffrath.
**kern
*ICvox
*Ivox
*M2/4
*k[b-]
*F:
{8g
8g
8cc
16cc
16dd
=1
2g
=2
16cc
8g
16a
16g
16f
8d
=3
2c}
=4
{8d
4g
8cc
=5
16g
16a
16f
16d
4c
=6
8f
16f
16d
16c
16d
8A
=7
2G}
==
!!!AGN: Xiaodiao, Xiuhebao diao. Biaoda aiqing
!! Band 26, 21
!!    Die Saengerin Wang Hong ist Angehoerige der Yao Minderheit und
!!    studiert an der Guangzhouer Musikhochschule.
!!    Aufgenommen am 5.5.87 +++ Nachtraeglich oktaviert! +++
!!    +++ Doublette +++
!!!ONB: ESAC (Essen Associative Code) Database: CHINA
!!!AMT: simple duple
!!!AIN: vox
!!!EED: Helmut Schaffrath
!!!EEV: 1.0
*-
